X:1
T:Title
%%score { ( 1 3 ) | ( 2 4 ) }
L:1/8
Q:1/4=100
M:4/4
K:Bb
V:1 treble nm="Grand Piano"
V:3 treble 
V:2 bass 
V:4 bass 
V:1
 [B,D]2 [DF]2 [DG]2 [FB]2 | B>B A_A =A4 | C2 D2 E2 A2 | [EG]>[EG] [DF][_D=E] [=DF]4 | %4
w: Mrs.~James~A.~Sutherland * * *||||
 [B,D]2 [DF]2 [DG]2 [FB]2 | z4 c4 | [B=e]2 d>d c2 B>B | A2 [B,=EG]>[B,EG] [A,F]4 | %8
w: ||||
 [Fd]2 [DF]>[DF] [DG]2 [FB]2 | B2 A>_A =A4 | e2 G>G A2 G2 | [DF]2 [DB]>[Ge] [Fd]4 | %12
w: ||||
 [Fd]>[Fd] _d=d f2 d2 | B>B AB [^Fd]2 z C | G>A [B,GB][B,EG] [B,DF]2 [B,FB][Ge] | d2 z2 z4 |] %16
w: ||||
V:2
 [B,,F,]2 [B,,B,]2 [B,,B,]2 [D,B,]2 | [F,CE]>[F,CE] [F,CE][F,=B,E] [F,CE]4 | %2
 [F,A,]2 [F,B,]2 [F,A,C]2 [F,CE]2 | [B,,B,]>[B,,B,] [B,,B,][B,,B,] [B,,B,]4 | %4
 [B,,F,]2 [B,,B,]2 [B,,B,]2 [D,B,]2 | z4 C4[K:bass] | %6
 [C,C]2[K:treble] [B,C=E]>[B,CE] [A,CF]2 [B,DG]>[B,DG] | [CF]2[K:bass] z2 (3F,-[F,G,]F,- F,2 | %8
 [B,,B,]2 [B,,B,]>[B,,B,] [B,,B,]2 [D,B,]2 | [F,CE]2 [F,CE]>[F,=B,E] [F,CE]4 | %10
 [F,A,G]2 [F,A,E]>[F,A,E] [F,CE]2 [F,A,E]2 | [B,,B,]2 [B,,B,]>[B,,B,] [B,,B,]4 | %12
 [B,,B,]>[B,,B,][K:treble] [B,=E][B,F] [B,DF]2 [B,F]2 | %13
 [G,DG]>[G,DG] [G,CG][G,B,G][K:bass] [D,A,]2 .[D,A,]2 | [E,B,]2 z2 z4 | [B,F]D F,>F, B,,4 |] %16
V:3
 x8 | x8 | x8 | x8 | x8 | A>A AB z2 A2 | x8 | x8 | x8 | x8 | x8 | x8 | x8 | z4 z2 [^FA]2 | x8 | %15
 z B [EAc]>[EFc] [DFB]4 |] %16
V:4
 x8 | x8 | x8 | x8 | x8 | [F,CF]>[F,CF] [F,CF][G,CF] [A,F]2[K:bass] F,2 | x2[K:treble] x6 | %7
 z2[K:bass] C,>C, z2 (3E,D,C, | x8 | x8 | x8 | x8 | x2[K:treble] x6 | x4[K:bass] x4 | %14
 E>F E,E, B,,2 D,[E,B,] | F,2 z2 z4 |] %16

